X:1
T:Title
%%score { ( 1 3 ) | ( 2 4 ) }
L:1/8
Q:1/4=110
M:4/4
K:G
V:1 treble nm="Grand Piano"
V:3 treble 
V:2 bass 
V:4 bass 
V:1
 B2 B2 c2 A2 | G4 D4 | G2 d2 c2 B2 | A8 | [Ec]2 [Ec]2 [^DB]2 [DF]2 | G4 A4 | B2 G2 G2 [^CA]2 | A8 | %8
w: Edwin~Moore * * *||||||||
 D2 E2 D2 [DB]2 | B4 A4 | D2 E2 D2 c2 | c4 G,2 A,2 | B2 B2 e2 d2 | d2 z2 [DB]2 A2 | G2 B2 B2 A2 | %15
w: |||||||
 [B,G]8 |] %16
w: |
V:2
 [G,D]2 [G,D]2 [D,A,D]2 [D,CD]2 | [G,B,D]4 [G,B,]4 | [G,B,D]2 [G,B,D]2 [F,A,D]2 [G,D]2 | [D,F,D]8 | %4
 [A,,A,]2 [A,,A,]2 [B,,F,]2 [B,,B,]2 | [E,B,E]4 [F,A,D]4 | [G,D]2 [G,B,D]2 [E,B,E]2 [A,,G,]2 | %7
 [D,F,C]8 | [G,B,]2 [G,C]2 [G,B,]2 [G,,G,]2 | [D,G,D]4 [D,F,D]4 | %10
 [D,F,C]2 [D,F,C]2 [D,F,C]2 [D,F,D]2 | [D,F,D]4 E,2 F,2 | [G,D]2 [G,D]2 [E,G,E]2 [E,^G,E]2 | %13
 z2[K:treble] c2[K:bass] B,,2 [C,C]2 | [D,B,D]2 [D,G,D]2 [D,E,^C]2 [D,F,=C]2 | [G,,G,]8 |] %16
V:3
 x8 | x8 | x8 | x8 | x8 | x8 | x8 | x8 | x8 | x8 | x8 | x8 | x8 | E4 E4 | x8 | x8 |] %16
V:4
 x8 | x8 | x8 | x8 | x8 | x8 | x8 | x8 | x8 | x8 | x8 | x8 | x8 | [A,,A,]4[K:treble][K:bass] z4 | %14
 x8 | x8 |] %16

